X:1
T:Title
%%score { ( 1 4 ) | ( 2 3 ) }
L:1/8
M:9/8
K:D
V:1 treble nm="Grand Piano"
V:4 treble 
V:2 bass 
V:3 bass 
V:1
 z3 z3[Q:1/4=107] [FA][=F^G][^FA] | [Fd]3 [FA]3 FED | B3 A3 z EF | [FA]3 [GB]3 [FA]FD | %4
[M:3/4] E3 .A3 |[M:3/8] A^G[CA] |[M:9/8] d3 A3 FED | B3 A3 z E[A,DF] | z3 z3 .[DB]3 | %9
[M:3/4] [CA]6 |[M:3/8] z3 |[M:9/8] d6 z3 | [FA]3 .F3 ABc | d6 z3 | [Ec]6 z3 | d6 z3 | c3 .B3 Bcd | %17
 z2 F F2 d cB[Gc] |[M:3/4] [Fd]6 |] %19
V:2
 z3 z3 [D,D]2 [D,D] | z3 z3 .A,3 | [D,G,D]3 [D,F,D]3 D,-[D,G,][D,A,D] | %3
 [D,D]3 [D,D]3 D[A,D][F,A,] |[M:3/4] [A,C]6 |[M:3/8] [A,,G,]2 [A,,G,] |[M:9/8] z3 z3 .A,3 | %7
 [D,G,D]3 [D,F,D]3 D,-[D,G,]D, | E,3 E,3 z EE, |[M:3/4] A,6 |[M:3/8][K:treble] ABc | %11
[M:9/8][K:bass] [D,A,]2 [D,A,] [D,A,]2 [D,D][K:treble] [G,DG]2 [G,B,G] | [D,D]3 .[D,A,D]3 z3 | %13
 [D,A,]2 D, D,2 D, z[K:treble] cE, | z3 G3 cBc | D,2 D, D,2 [D,A,] z[K:treble] ^GD, | %16
 [G,DG]3 .[G,DG]3 z3 | [A,DF]2 [A,D] [A,D]2 [A,F][K:bass] [A,,A,]2 [A,,A,] |[M:3/4] [D,A,]6 |] %19
V:3
 x9 | [D,A,]3 [D,D]3 [D,D]-[D,G,D][D,F,] | z3 z3 .F,3 | z3 z3 .D,3 |[M:3/4] x6 |[M:3/8] x3 | %6
[M:9/8] [D,F,D]3 [D,F,D]3 [D,D]-[D,G,D][D,F,] | z3 z3 .F,3 | z3 z3 .E,3 |[M:3/4] x6 | %10
[M:3/8][K:treble] x3 |[M:9/8][K:bass] x6[K:treble] x3 | x9 | z3 z3 .E,3[K:treble] | A,6 z3 | %15
 z3 z3 .D,3[K:treble] | x9 | x6[K:bass] x3 |[M:3/4] x6 |] %19
V:4
 x9 | x9 | z3 z3 .D3 | x9 |[M:3/4] x6 |[M:3/8] C2 z |[M:9/8] x9 | z3 z3 .D3 | %8
 [A,CE]3 [CEA]3 ^G-[Gc][DGB] |[M:3/4] x6 |[M:3/8] x3 |[M:9/8] F2 F F2 [Fc] Bcd | x9 | %13
 F2 [A,F] [A,F]2 [DFc] .[D^GB]2 [EGd] | A3 z3 z3 | [DF]2 [A,F] [A,F]2 [Fd] .[DFA]2 [DFA] | x9 | %17
 A6 .G3 |[M:3/4] x6 |] %19

